X: 1232
T: Karşıda Kürt Evleri
C: (Anonim)
O: Turkey
F: http://compmusic.upf.edu/node/140
N: ussak--kurthavasi--sofyan--karsida_kurt--
N: makam= ussak
N: form= kurthavasi
N: usul= sofyan = 4/4
M: 4/4
L: 1/16
K: C _2/4B   
Q: 1/4=90
%%MIDI tuningsystem comma53
z4 ^3/4F2G2 A4 A4  | d2c2 B2A2 B2c2 d4  | \
w:  Kar şı da  Kürt   |  ev *  *  *  le *  ri    | 
z4 ^3/4F2G2 A4 A4  | d2c2 B2A2 B2c2 d4  | 
w:  Kar şı da  Kürt   |  ev *  *  *  le *  ri    | 
z4 e2f2 g2f2 e2d2  | d2c4B2 (3c2B2A2 A4  | \
w:  Ya yıl mış  *  de  |  ve *  *  le *  *  ri    | 
z4 e2f2 g2f2 e2d2  | 
w:  Ya yıl mış  *  de  | 
d2c4B2 (3c2B2A2 A4  | z4 ^3/4F2G2 A4 A4  | \
w:  ve *  *  le *  *  ri    |  O tur muş  ko  | 
d2c2 B2A2 B2c2 d4  | z4 ^3/4F2G2 A4 A4  | 
w:  yun  *  *  *  sa *  ğar    |  O tur muş  ko  | 
d2c2 B2A2 B2c2 d4  | z4 e2f2 g2f2 e2d2  | \
w:  yun  *  *  *  sa *  ğar    |  Ter le miş  *  me  | 
d2c4B2 (3c2B2A2 A4  | 
w:  me *  *  le *  *  ri    | 
z4 e2f2 g2f2 e2d2  | d2c4B2 (3c2B2A2 A4  | \
w:  Ter le miş  *  me  |  me *  *  le *  *  ri    | 
z4 B2c2 d4 d2B2  | c4 c2A2 B4 A4  | 
w:  Va  re  men  ni  de   |  men  ni  *  nen  ni   | 
z4 B2c2 d6B2  | c6A2 B2c2 d4  | z4 e2f2 g2f2 e2d2  | \
w:  va  re  lo   |  lo  *  lo   |  Ter le miş  *  me  | 
d2c4B2 (3c2B2A2 A4  | 
w:  me *  *  le *  *  ri    | 
|


